X:60
T: ES RITTEN DREI REITER WOL UEBER DEN RHEIN
N: E0042F
O: Europa, Mitteleuropa, Deutschland, Hessen, Darmstadt, Alsfeld
R: erzaehlendes Volks - Lied, Ritter -, Raeuber - Sage
M: 6/8
L: 1/16
K: G
D2 | D3EF2G3AB2 | A2A2F2D4
D2 | A2A2A2d2d2d2 | B4A2G4
GB | d2d2d2e3ee2 | d4c2B4
d2 | e4e2d2c2B2 | A6G4

